html-css/module-10/img/image.svg

<svg xmlns="http://www.w3.org/2000/svg" viewBox="0 0 32 32">
    <path fill="#95e1d3" d="M30.500,32.000 L1.500,32.000 C0.671,32.000 -0.000,31.328 -0.000,30.500 L-0.000,1.500 C-0.000,0.671 0.671,0.000 1.500,0.000 L30.500,0.000 C31.328,0.000 32.000,0.671 32.000,1.500 L32.000,30.500 C32.000,31.328 31.328,32.000 30.500,32.000 ZM29.000,3.000 L3.000,3.000 L3.000,29.000 L29.000,29.000 L29.000,3.000 ZM6.500,4.500 L12.000,4.500 L12.000,4.500 C12.828,4.500 13.500,5.171 13.500,6.000 C13.500,6.828 12.828,7.500 12.000,7.500 L12.000,7.500 L7.500,7.500 L7.500,12.000 L7.500,12.000 C7.500,12.828 6.828,13.500 6.000,13.500 C5.172,13.500 4.500,12.828 4.500,12.000 L4.500,12.000 L4.500,6.500 L4.500,6.500 L4.500,4.500 L6.500,4.500 L6.500,4.500 ZM4.500,20.000 L4.500,20.000 C4.500,19.171 5.172,18.499 6.000,18.499 C6.828,18.499 7.500,19.171 7.500,20.000 L7.500,20.000 L7.500,24.499 L12.000,24.499 L12.000,24.500 C12.828,24.500 13.500,25.171 13.500,26.000 C13.500,26.828 12.828,27.500 12.000,27.500 L12.000,27.500 L6.500,27.500 L6.500,27.500 L4.500,27.500 L4.500,25.500 L4.500,25.500 L4.500,20.000 ZM20.000,4.500 L20.000,4.500 L25.500,4.500 L25.500,4.500 L27.500,4.500 L27.500,6.500 L27.500,6.500 L27.500,12.000 L27.500,12.000 C27.500,12.828 26.828,13.500 26.000,13.500 C25.172,13.500 24.500,12.828 24.500,12.000 L24.500,12.000 L24.500,7.500 L20.000,7.500 L20.000,7.500 C19.172,7.500 18.500,6.828 18.500,6.000 C18.500,5.171 19.172,4.500 20.000,4.500 ZM20.000,24.500 L20.000,24.499 L24.500,24.499 L24.500,20.000 L24.500,20.000 C24.500,19.171 25.172,18.499 26.000,18.499 C26.828,18.499 27.500,19.171 27.500,20.000 L27.500,20.000 L27.500,25.500 L27.500,25.500 L27.500,27.500 L25.500,27.500 L25.500,27.500 L20.000,27.500 L20.000,27.500 C19.172,27.500 18.500,26.828 18.500,26.000 C18.500,25.171 19.172,24.500 20.000,24.500 Z"/>
</svg>

<svg xmlns="http://www.w3.org/2000/svg" viewBox="0 0 32 32"><path fill="#95e1d3" d="M30.5 32h-29A1.5 1.5 0 0 1 0 30.5v-29C0 .67.67 0 1.5 0h29c.83 0 1.5.67 1.5 1.5v29c0 .83-.67 1.5-1.5 1.5zM29 3H3v26h26V3zM6.5 4.5H12a1.5 1.5 0 1 1 0 3H7.5V12a1.5 1.5 0 0 1-3 0V4.5h2zM4.5 20a1.5 1.5 0 1 1 3 0v4.5H12a1.5 1.5 0 1 1 0 3H4.5V20zM20 4.5h7.5V12a1.5 1.5 0 0 1-3 0V7.5H20a1.5 1.5 0 0 1 0-3zm0 20h4.5V20a1.5 1.5 0 1 1 3 0v7.5H20a1.5 1.5 0 0 1 0-3z"/></svg>
